public/assets/site/organize.svg

<svg xmlns="http://www.w3.org/2000/svg" width="32" height="32" viewBox="0 0 32 32"><path fill="#fff" d="M15.047 16.707h-14.906v-14.906h14.906v14.906zm-13.868-1.038h12.831v-12.831h-12.831v12.831zm30.68 7.523h-13.609v-13.608h13.609v13.608zm-12.572-1.038h11.533v-11.533h-11.533v11.533zm-3.929 8.045h-10.259v-10.26h10.259v10.26zm-9.222-1.037h8.185v-8.185h-8.185v8.185z"/></svg>

<?xml version="1.0" encoding="utf-8"?>
<!-- Generator: Adobe Illustrator 16.0.0, SVG Export Plug-In . SVG Version: 6.00 Build 0)  -->
<!DOCTYPE svg PUBLIC "-//W3C//DTD SVG 1.1//EN" "http://www.w3.org/Graphics/SVG/1.1/DTD/svg11.dtd">
<svg version="1.1" id="Layer_1" xmlns="http://www.w3.org/2000/svg" xmlns:xlink="http://www.w3.org/1999/xlink" x="0px" y="0px"
	 width="32px" height="32px" viewBox="0 0 32 32" enable-background="new 0 0 32 32" xml:space="preserve">
<path fill="#FFFFFF" d="M15.047,16.707H0.141V1.801h14.906V16.707z M1.179,15.669H14.01V2.838H1.179V15.669z M31.859,23.192H18.25
	V9.584h13.609V23.192z M19.287,22.154H30.82V10.621H19.287V22.154z M15.358,30.199H5.099v-10.26h10.259V30.199z M6.136,29.162h8.185
	v-8.185H6.136V29.162z"/>
</svg>
